dist/img/svg/vk_fill.svg

<svg width="49" height="49" viewBox="0 0 49 49" fill="none" xmlns="http://www.w3.org/2000/svg">
<path d="M32.0289 0H16.9957C3.26585 0 0 3.26585 0 16.9712V32.0043C0 45.7317 3.24135 49 16.9712 49H32.0043C45.7317 49 49 45.7587 49 32.0289V16.9957C49 3.26585 45.7587 0 32.0289 0ZM39.5577 34.9615H35.9832C34.6308 34.9615 34.2241 33.8664 31.7986 31.4409C29.6818 29.4 28.7875 29.1452 28.251 29.1452C27.5111 29.1452 27.3077 29.3486 27.3077 30.3702V33.5846C27.3077 34.4543 27.026 34.964 24.7548 34.964C22.5506 34.8158 20.4132 34.1462 18.5186 33.0102C16.6239 31.8741 15.0263 30.3042 13.8572 28.4298C11.0818 24.9753 9.15061 20.9209 8.2173 16.5889C8.2173 16.0524 8.42065 15.5673 9.4423 15.5673H13.0144C13.9331 15.5673 14.2639 15.9765 14.6241 16.9197C16.3587 22.0255 19.3183 26.4649 20.5188 26.4649C20.9794 26.4649 21.1803 26.2616 21.1803 25.1125V19.8548C21.0284 17.4563 19.7544 17.2529 19.7544 16.3856C19.7707 16.1568 19.8755 15.9435 20.0466 15.7907C20.2177 15.6379 20.4415 15.5578 20.6707 15.5673H26.2861C27.0529 15.5673 27.3077 15.9495 27.3077 16.8683V23.9635C27.3077 24.7303 27.6385 24.9851 27.8687 24.9851C28.3294 24.9851 28.6846 24.7303 29.5274 23.8875C31.3376 21.6799 32.8166 19.2204 33.9178 16.5865C34.0304 16.2701 34.2433 15.9992 34.5242 15.8152C34.8051 15.6312 35.1385 15.5441 35.4736 15.5673H39.0481C40.1188 15.5673 40.3466 16.1039 40.1188 16.8683C38.819 19.7799 37.2108 22.5438 35.3217 25.1125C34.937 25.7005 34.7826 26.0068 35.3217 26.6952C35.6769 27.2318 36.9289 28.2779 37.7716 29.2726C38.9964 30.4943 40.0135 31.9077 40.7827 33.4572C41.089 34.4519 40.5769 34.9615 39.5577 34.9615Z" fill="currentColor"/>
</svg>

<svg width="49" height="49" viewBox="0 0 49 49" fill="none" xmlns="http://www.w3.org/2000/svg"><path d="M32.029 0H16.996C3.266 0 0 3.266 0 16.971v15.033C0 45.732 3.241 49 16.971 49h15.033C45.732 49 49 45.759 49 32.029V16.996C49 3.266 45.759 0 32.029 0zm7.529 34.962h-3.575c-1.352 0-1.759-1.096-4.184-3.521-2.117-2.041-3.011-2.296-3.548-2.296-.74 0-.943.204-.943 1.225v3.215c0 .87-.282 1.379-2.553 1.379a13.946 13.946 0 01-10.898-6.534 28.484 28.484 0 01-5.64-11.841c0-.537.204-1.022 1.225-1.022h3.572c.92 0 1.25.41 1.61 1.353 1.735 5.105 4.694 9.545 5.895 9.545.46 0 .661-.203.661-1.352v-5.258c-.152-2.399-1.426-2.602-1.426-3.47a.881.881 0 01.917-.818h5.615c.767 0 1.022.383 1.022 1.301v7.096c0 .766.33 1.021.56 1.021.461 0 .817-.255 1.66-1.098a29.4 29.4 0 004.39-7.3 1.539 1.539 0 011.556-1.02h3.574c1.07 0 1.299.537 1.07 1.301a44.607 44.607 0 01-4.796 8.245c-.385.588-.54.894 0 1.582.355.537 1.607 1.583 2.45 2.578a15.89 15.89 0 013.01 4.184c.307.995-.205 1.505-1.224 1.505z" fill="currentColor"/></svg>
